X:1
T:Der Siebenschritt
C:traditionell
R:volkstanz
A:Niederoesterreich
%%textfont Helvetica-Narrow 10pt
%%begintext align
B:"Wer tanzt nach meiner Pfeife", Sepp Pichler, Herausgeber Steirisches Volksliedwerk, Graz o.J.
S:mit der angabe: Oesterreichische Volkstaenze, Teil 3, Neue Ausgabe, Raimund Zoder, Wien, 1955
N:im buch einstimmig
N:im buch s. 76 nr. 1
N:im buch ganz in F erster ton c', ambitus c' d''
%%endtext
F:http://simonwascher.info/
Z:abc transcription Simon Wascher
M:2/4
L:1/8
K:G %Transposed from F
DG GG | FF/A/ G2 | DG GG | (A/B/c/A/) B2 |\
{^c}dd e2 | {B}cc d2 | BB cc | AA B2 |\
{^c}dd e2 | {B}cc d2 | BB cc |  FF G2 :|
%%wordsfont Times-Italic 11pt
W:aus Simon Waschers TradArchiv
